local/share/icons/dracula-icons-main/scalable/apps/liferea.svg

<?xml version="1.0" encoding="UTF-8"?>
<svg xmlns="http://www.w3.org/2000/svg" xmlns:xlink="http://www.w3.org/1999/xlink" width="64" height="64" viewBox="0 0 64 64">
<path fill-rule="nonzero" fill="rgb(25.882353%, 60.784314%, 83.137255%)" fill-opacity="1" d="M 32 5 C 46.910156 5 59 17.089844 59 32 C 59 46.910156 46.910156 59 32 59 C 17.089844 59 5 46.910156 5 32 C 5 17.089844 17.089844 5 32 5 Z M 32 5 "/>
<path fill-rule="nonzero" fill="rgb(97.647059%, 97.647059%, 97.647059%)" fill-opacity="1" d="M 24.957031 42.566406 C 24.957031 44.511719 23.378906 46.085938 21.433594 46.085938 C 19.488281 46.085938 17.914062 44.511719 17.914062 42.566406 C 17.914062 40.621094 19.488281 39.042969 21.433594 39.042969 C 23.378906 39.042969 24.957031 40.621094 24.957031 42.566406 Z M 24.957031 42.566406 "/>
<path fill-rule="nonzero" fill="rgb(97.647059%, 97.647059%, 97.647059%)" fill-opacity="1" d="M 17.914062 28.476562 L 17.914062 34.347656 L 20.847656 34.347656 C 25.710938 34.347656 29.652344 38.289062 29.652344 43.152344 L 29.652344 46.085938 L 35.523438 46.085938 L 35.523438 43.152344 C 35.523438 35.046875 28.953125 28.476562 20.847656 28.476562 "/>
<path fill-rule="nonzero" fill="rgb(97.647059%, 97.647059%, 97.647059%)" fill-opacity="1" d="M 17.914062 16.738281 L 17.914062 22.609375 L 21.433594 22.609375 C 32.457031 22.609375 41.390625 31.542969 41.390625 42.566406 L 41.390625 46.085938 L 47.261719 46.085938 L 47.261719 42.566406 C 47.261719 28.300781 35.699219 16.738281 21.433594 16.738281 Z M 17.914062 16.738281 "/>
</svg>

<svg width="64" height="64" version="1.1" viewBox="0 0 64 64" xmlns="http://www.w3.org/2000/svg">
 <path d="m32 5c14.912 0 27 12.088 27 27s-12.088 27-27 27-27-12.088-27-27 12.088-27 27-27z" fill="#429bd4" stroke-width="1.1739"/>
 <circle cx="21.435" cy="42.565" r="3.5217" fill="#f9f9f9"/>
 <path d="m17.913 28.478v5.8696h2.9348c4.8623 0 8.8043 3.942 8.8043 8.8043v2.9348h5.8696v-2.9348c0-8.1047-6.5692-14.674-14.674-14.674" fill="#f9f9f9"/>
 <path d="m17.913 16.739v5.8696h3.5217a19.957 19.957 0 0 1 19.957 19.957v3.5217h5.8696v-3.5217a25.826 25.826 0 0 0-25.826-25.826z" fill="#f9f9f9"/>
</svg>
